src/main/content/img/stack_overflow_logo.svg

<?xml version="1.0" encoding="UTF-8"?>
<svg width="122px" height="143px" viewBox="0 0 122 143" version="1.1" xmlns="http://www.w3.org/2000/svg" xmlns:xlink="http://www.w3.org/1999/xlink">
    <!-- Generator: Sketch 50.2 (55047) - http://www.bohemiancoding.com/sketch -->
    <title>so-icon copy</title>
    <desc>Created with Sketch.</desc>
    <defs></defs>
    <g id="v2_Support_Intermediate_Page" stroke="none" stroke-width="1" fill="none" fill-rule="evenodd">
        <g id="IntermediatePage_Final_Desktop" transform="translate(-660.000000, -1083.000000)" fill="#FFFFFF" fill-rule="nonzero">
            <g id="so-icon-copy" transform="translate(660.000000, 1083.000000)">
                <polygon id="Shape" points="98.7021583 131.038835 98.7021583 95 111 95 111 143 0 143 0 95 12.2978417 95 12.2978417 131.038835"></polygon>
                <path d="M33.2478336,83.5232068 L92.2079723,95.8565401 L94.7036395,83.9915612 L35.7435009,71.6582278 L33.2478336,83.5232068 Z M41.0467938,55.4219409 L95.6395147,80.8691983 L100.630849,69.9409283 L46.0381282,44.3375527 L41.0467938,55.4219409 Z M56.1767764,28.5696203 L102.5026,67.1308017 L110.145581,57.9198312 L63.8197574,19.3586498 L56.1767764,28.5696203 Z M86.1247834,5.54643064e-15 L76.4540728,7.1814346 L112.329289,55.5780591 L122,48.3966245 L86.1247834,5.54643064e-15 Z M32,111 L92.2079723,111 L92.2079723,98.978903 L32,98.978903 L32,111 Z" id="Shape"></path>
            </g>
        </g>
    </g>
</svg>

<svg width="122" height="143" xmlns="http://www.w3.org/2000/svg"><g fill="#FFF" fill-rule="nonzero"><path d="M98.702 131.039V95H111v48H0V95h12.298v36.039z"/><path d="M33.248 83.523l58.96 12.334 2.496-11.865-58.96-12.334-2.496 11.865zm7.799-28.101L95.64 80.869l4.99-10.928-54.592-25.603-4.991 11.084zm15.13-26.852l46.326 38.56 7.643-9.21L63.82 19.359l-7.643 9.21zM86.125 0l-9.67 7.181 35.874 48.397L122 48.397 86.125 0zM32 111h60.208V98.979H32V111z"/></g></svg>
